X:1
T:Title
L:1/4
M:4/4
I:linebreak $
K:A
V:1 treble nm="Voice" snm="Voice"
V:1
 e f =g f | e d z/ | e f =g f | e2 e2 |$ e f =g f | e d c2 | A c B B | A2 A2 |$ A2 A2 | e d c2 | %10
 A A B A | E2 E2 |$ A2 A2 | e d c2 | A c B B | A2 A2 |] %16
